X:89
T:Scotch Ramble
M:6/8
L:1/8
B:Thompson's Compleat Collection of 200 Favourite Country Dances, vol. 3 (London, 1773)
Z:Transcribed and edited by Flynn Titford-Mock, 2007
Z:abc's:AK/Fiddler's Companion
K:C
e | c>dc cGE | cGE cde | cdc cGE | DDD D2e | c>dc cGE | cGE cGE | FGF EFD | [Cc][Cc][Cc] [C2c2] :|
|: e | c>de/f/ gec | gec c2g | c>de/f/ gec | afd d2a | c>de/f/ gec | gec gec | fgf efd | [Cc][Cc][Cc] [C2c2] :|

